X: 3
T: Reel de Montr\'eal (R-41)
I: Reel de Montreal	R-41	G/D	reel	Set 16, 25
M: C|
Z: Transcribed to abc by Mary Lou Knack
R: reel
K: G
d2| "G"g2fe dcBA| GBDG B2AG| "D7"FADF AcBA| "G"GBDG B2Bd|
    "G"g2fe dcBA| GBDG B2AG| "D7"FGAB cdef| "G"g2g2 g2 :| [K: D]
|: z2 |"D"A2FA d2Ad| f2df a2ab| "A7"a2g2 e2g2| "D"b2a2 f2d2|
"D"A2FA d2Ad| f2df a2ab| "A7"a2g2 e2c2| "D  (D7)"d4-d2 :|
%%text 01/24/99 

#include "RightHeader.h"
%%footer 10/17/11 For use only by Roaring Jelly members
% ---------- set 55 ----------
% John Howett (D) / Auld Grey Cat (E dor) / Dinky's Reel (A mix)
%%text Set 55
%%vskip -1cm
%%scale .685
$SmallRMargin
